img/icon-instagram.svg

<svg fill="none" height="40" viewBox="0 0 40 40" width="40" xmlns="http://www.w3.org/2000/svg"><path d="m13 3.33301h14c5.3333 0 9.6666 4.33333 9.6666 9.66669v14c0 2.5637-1.0184 5.0225-2.8313 6.8353-1.8128 1.8129-4.2716 2.8313-6.8353 2.8313h-14c-5.33335 0-9.66669-4.3333-9.66669-9.6666v-14c0-2.5638 1.01845-5.02254 2.8313-6.83539 1.81286-1.81285 4.27159-2.8313 6.83539-2.8313zm-.3334 3.33333c-1.5913 0-3.11738.63214-4.24259 1.75736-1.12522 1.12522-1.75736 2.6513-1.75736 4.2426v14.6667c0 3.3167 2.68333 6 5.99995 6h14.6667c1.5913 0 3.1174-.6321 4.2427-1.7573 1.1252-1.1253 1.7573-2.6514 1.7573-4.2427v-14.6667c0-3.31663-2.6833-5.99996-6-5.99996zm16.0834 2.5c.5525 0 1.0824.21949 1.4731.6102.3907.39066.6102.92056.6102 1.47316 0 .5525-.2195 1.0824-.6102 1.4731s-.9206.6102-1.4731.6102c-.5526 0-1.0825-.2195-1.4732-.6102s-.6102-.9206-.6102-1.4731c0-.5526.2195-1.0825.6102-1.47316.3907-.39071.9206-.6102 1.4732-.6102zm-8.75 2.49996c2.2101 0 4.3297.878 5.8925 2.4408s2.4408 3.6824 2.4408 5.8926c0 2.2101-.878 4.3297-2.4408 5.8925s-3.6824 2.4408-5.8925 2.4408c-2.2102 0-4.3298-.878-5.8926-2.4408s-2.4408-3.6824-2.4408-5.8925c0-2.2102.878-4.3298 2.4408-5.8926s3.6824-2.4408 5.8926-2.4408zm0 3.3334c-1.3261 0-2.5979.5268-3.5356 1.4644-.9376.9377-1.4644 2.2095-1.4644 3.5356s.5268 2.5978 1.4644 3.5355c.9377.9377 2.2095 1.4645 3.5356 1.4645s2.5978-.5268 3.5355-1.4645 1.4645-2.2094 1.4645-3.5355-.5268-2.5979-1.4645-3.5356c-.9377-.9376-2.2094-1.4644-3.5355-1.4644z" fill="#67b0c7"/></svg>

<svg width="40" height="40" viewBox="0 0 40 40" fill="none" xmlns="http://www.w3.org/2000/svg">
<path d="M13 3.33301H27C32.3333 3.33301 36.6666 7.66634 36.6666 12.9997V26.9997C36.6666 29.5634 35.6482 32.0222 33.8353 33.835C32.0225 35.6479 29.5637 36.6663 27 36.6663H13C7.66665 36.6663 3.33331 32.333 3.33331 26.9997V12.9997C3.33331 10.4359 4.35176 7.97716 6.16461 6.16431C7.97747 4.35146 10.4362 3.33301 13 3.33301ZM12.6666 6.66634C11.0753 6.66634 9.54922 7.29848 8.42401 8.4237C7.29879 9.54892 6.66665 11.075 6.66665 12.6663V27.333C6.66665 30.6497 9.34998 33.333 12.6666 33.333H27.3333C28.9246 33.333 30.4507 32.7009 31.576 31.5757C32.7012 30.4504 33.3333 28.9243 33.3333 27.333V12.6663C33.3333 9.34967 30.65 6.66634 27.3333 6.66634H12.6666ZM28.75 9.16634C29.3025 9.16634 29.8324 9.38583 30.2231 9.77654C30.6138 10.1672 30.8333 10.6971 30.8333 11.2497C30.8333 11.8022 30.6138 12.3321 30.2231 12.7228C29.8324 13.1135 29.3025 13.333 28.75 13.333C28.1974 13.333 27.6675 13.1135 27.2768 12.7228C26.8861 12.3321 26.6666 11.8022 26.6666 11.2497C26.6666 10.6971 26.8861 10.1672 27.2768 9.77654C27.6675 9.38583 28.1974 9.16634 28.75 9.16634ZM20 11.6663C22.2101 11.6663 24.3297 12.5443 25.8925 14.1071C27.4553 15.6699 28.3333 17.7895 28.3333 19.9997C28.3333 22.2098 27.4553 24.3294 25.8925 25.8922C24.3297 27.455 22.2101 28.333 20 28.333C17.7898 28.333 15.6702 27.455 14.1074 25.8922C12.5446 24.3294 11.6666 22.2098 11.6666 19.9997C11.6666 17.7895 12.5446 15.6699 14.1074 14.1071C15.6702 12.5443 17.7898 11.6663 20 11.6663ZM20 14.9997C18.6739 14.9997 17.4021 15.5265 16.4644 16.4641C15.5268 17.4018 15 18.6736 15 19.9997C15 21.3258 15.5268 22.5975 16.4644 23.5352C17.4021 24.4729 18.6739 24.9997 20 24.9997C21.3261 24.9997 22.5978 24.4729 23.5355 23.5352C24.4732 22.5975 25 21.3258 25 19.9997C25 18.6736 24.4732 17.4018 23.5355 16.4641C22.5978 15.5265 21.3261 14.9997 20 14.9997Z" fill="#67B0C7"/>
</svg>
